svgs/thin/angle-90.svg

<svg xmlns="http://www.w3.org/2000/svg" viewBox="0 0 448 512"><!--! Font Awesome Pro 6.3.0 by @fontawesome - https://fontawesome.com License - https://fontawesome.com/license (Commercial License) Copyright 2023 Fonticons, Inc. --><path d="M440 464H16V40C16 35.58 12.42 32 8 32S0 35.58 0 40v432C0 476.4 3.578 480 8 480h432c4.422 0 8-3.594 8-8S444.4 464 440 464zM348.6 424c.375 0 .7656-.0313 1.141-.0938c4.375-.625 7.422-4.656 6.797-9.031c-3.875-27.09-11-53.69-21.17-79c-1.656-4.125-6.281-6.031-10.41-4.469c-4.094 1.656-6.078 6.312-4.438 10.41c9.688 24.16 16.48 49.5 20.17 75.31C341.3 421.1 344.7 424 348.6 424zM276.9 265.2c1.578 2.062 3.953 3.141 6.359 3.141c1.703 0 3.406-.5313 4.859-1.641c3.5-2.688 4.188-7.703 1.5-11.22c-18.77-24.55-40.7-46.48-65.23-65.17C220.9 187.6 215.9 188.2 213.2 191.8c-2.688 3.516-2 8.531 1.516 11.2C238.1 220.8 259 241.7 276.9 265.2zM62.88 139.3C88.7 143 114 149.8 138.2 159.5c.9844 .3906 1.984 .5781 2.984 .5781c3.172 0 6.172-1.891 7.422-5.016c1.641-4.109-.3438-8.766-4.438-10.41C118.8 134.5 92.23 127.4 65.13 123.5C60.88 122.1 56.7 125.9 56.08 130.3C55.45 134.6 58.5 138.7 62.88 139.3z"/></svg>

<svg xmlns="http://www.w3.org/2000/svg" viewBox="0 0 448 512"><!-- Font Awesome Pro 6.0.0-alpha2 by @fontawesome - https://fontawesome.com License - https://fontawesome.com/license (Commercial License) --><path d="M440 464H16V40C16 35.578 12.422 32 8 32S0 35.578 0 40V472C0 476.406 3.578 480 8 480H440C444.422 480 448 476.406 448 472S444.422 464 440 464ZM348.578 424C348.953 424 349.344 423.969 349.719 423.906C354.094 423.281 357.141 419.25 356.516 414.875C352.641 387.781 345.516 361.187 335.344 335.875C333.687 331.75 329.062 329.844 324.937 331.406C320.844 333.062 318.859 337.719 320.5 341.812C330.187 365.969 336.984 391.312 340.672 417.125C341.25 421.125 344.672 424 348.578 424ZM276.891 265.156C278.469 267.219 280.844 268.297 283.25 268.297C284.953 268.297 286.656 267.766 288.109 266.656C291.609 263.969 292.297 258.953 289.609 255.438C270.844 230.891 248.906 208.953 224.375 190.266C220.891 187.609 215.875 188.234 213.172 191.781C210.484 195.297 211.172 200.313 214.688 202.984C238.062 220.812 259 241.734 276.891 265.156ZM62.875 139.328C88.703 143.016 114.031 149.812 138.172 159.5C139.156 159.891 140.156 160.078 141.156 160.078C144.328 160.078 147.328 158.188 148.578 155.062C150.219 150.953 148.234 146.297 144.141 144.656C118.812 134.484 92.234 127.359 65.125 123.484C60.875 122.953 56.703 125.891 56.078 130.281C55.453 134.641 58.5 138.703 62.875 139.328Z"/></svg>
